build/images/clients/smithsonian.svg

<?xml version="1.0" encoding="UTF-8"?>
<svg width="580px" height="80px" viewBox="0 0 580 80" version="1.1" xmlns="http://www.w3.org/2000/svg" xmlns:xlink="http://www.w3.org/1999/xlink">
    <title>Group 4</title>
    <g id="Page-1" stroke="none" stroke-width="1" fill="none" fill-rule="evenodd">
        <g id="Group-4" fill-rule="nonzero">
            <path d="M291.452305,5 C287.764398,5.95524966 281.559316,7.49579699 277,8.35677616 L277,10.2682508 C283.691355,10.843358 283.883753,10.7454552 283.883753,16.5940934 L283.883753,64.3818003 C283.883753,69.7461041 283.391589,70.2243511 277.286043,70.7994583 L277.286043,73 L297.843996,73 L297.843996,70.7994583 C291.929043,70.2243511 291.445835,69.7460032 291.445835,64.3818003 L291.445835,39.9592519 C293.866948,37.1779192 297.458179,35.7465077 301.435534,35.5514421 C308.511684,35.5514421 311.032946,40.057121 311.032946,46.9483175 L311.032946,64.3818003 C311.032946,69.7461041 310.554403,70.2243511 304.435236,70.7994583 L304.435236,73 L325,73 L325,70.7075084 C319.091857,70.2232077 318.595028,69.7460032 318.595028,64.3816658 L318.595028,44.0776919 C318.595028,35.548617 313.556251,30.0881257 305.21334,30.2831913 C299.979441,30.4715305 294.745541,33.5394414 291.452645,36.9833581 L291.452645,5 L291.452305,5 Z M234,9 C231.304998,9 229,11.2034434 229,14.0502966 C229,16.8036497 231.304897,19 234,19 C236.788585,19 238.992908,16.8103882 239,14.0631932 C239,11.2260124 236.789666,9.03256384 234,9.00032241 L234,9 Z M476.006586,9 C473.321625,9 471,11.2034434 471,14.0502966 C471,16.8036497 473.318315,19 476.006586,19 C478.78851,19 480.993245,16.8103882 481,14.0631932 C481,11.2260124 478.809686,9.03256384 476.006586,9.00032241 L476.006586,9 Z M121.882397,10 C109.471084,10 102.372155,17.9930301 102.372155,27.3137698 C102.372155,38.6040942 115.160476,43.0397087 118.288344,44.5435869 C124.354411,47.4620361 130.512983,50.7504724 130.512983,58.7520961 C130.512983,66.0896997 125.963599,70.901449 118.756193,70.901449 C108.717401,70.901449 103.882849,60.4470164 102.372155,56.0279281 L100,56.395866 C100.948343,61.4793049 101.987261,68.1585073 102.742608,70.6043752 C103.877258,71.0836331 105.589034,71.8293584 107.954833,72.5862223 C110.327321,73.3431192 113.54207,74 116.956105,74 C128.994736,74 138,65.9990374 138,55.0788983 C138,43.4150833 128.047058,39.54929 121.791323,36.8290883 C114.590572,33.6230843 109.566683,30.5075114 109.566683,23.5437289 C109.566683,17.9876426 113.077881,13.1051615 119.802797,13.1051615 C128.427726,13.1051615 131.083419,19.6921481 132.690278,25.241624 L135.055944,24.957705 C134.303925,19.3123775 133.732524,15.5483852 133.353186,12.253074 C132.311673,12.0679813 130.987187,11.5936482 129.752811,11.2201906 C127.75966,10.5591452 124.541251,10 121.882563,10 L121.882397,10 Z M260.803328,19.0009404 L254.488506,25.3116533 L254.488506,31.340233 L249.820673,31.340233 L247,34.016702 L247.393413,34.9678936 L254.488369,34.9678936 L254.488369,62.4214592 C254.488369,70.0759988 257.890029,74 264.117312,74 C264.793314,74 266.058327,73.7094701 267.031361,73.2324636 L275,69.3094701 L274.019762,67.203716 C272.172738,68.2549976 270.036467,69.0208546 268.285005,69.0208546 C265.662968,69.0208546 262.06339,67.6834766 262.06339,60.2240118 L262.070218,60.1904246 L262.070218,34.9670539 L272.666049,34.9670539 C273.83707,33.9191646 274.124645,32.3906414 273.346217,31.3392925 L262.070286,31.3392925 L262.070286,19 L260.803328,19 L260.803328,19.0009404 Z M158.51885,30.0005392 C153.650398,31.7292754 148.96904,32.8905167 144.576704,33.8510118 L144.576704,35.5754682 C150.880209,36.3437767 151.066296,36.4378986 151.066296,42.1902877 L151.059591,42.1902877 L151.059591,64.3647102 C151.059591,69.7397355 150.588504,70.2121985 144,70.7884551 L144,73 L164.726462,73 L164.726462,70.7884551 C158.989601,70.2122322 158.511809,69.7394996 158.511809,64.3647102 L158.511809,40.0840866 C161.576319,37.5903782 165.393359,35.5754682 169.212345,35.5754682 C175.794143,35.5754682 177.797518,39.9934357 177.797518,45.5534697 L177.797518,64.3643732 C177.797518,69.7393985 177.32737,70.2118615 171.117814,70.7881181 L171.117814,73 L191.353407,73 L191.353407,70.7881181 C185.720487,70.2118952 185.243366,69.7391626 185.243366,64.3643732 L185.243366,42.8612392 C185.243366,41.9985392 185.147338,41.2371727 185.053456,40.1823872 C188.587442,37.1090859 192.309528,35.5750301 195.65575,35.5750301 C202.72037,35.5750301 204.529275,40.3711028 204.529275,45.9348437 L204.529275,64.3642721 C204.529275,69.7392974 204.058122,70.2117604 197.751331,70.788017 L197.751331,72.9995619 L218,72.9995619 L218,70.788017 C212.460962,70.2117941 211.981829,69.7390615 211.981829,64.3642721 L211.981829,42.9598768 C211.981829,35.3809226 207.693434,30.1976459 199.958563,30.1976459 C196.810231,30.1976459 194.41349,31.2552622 191.55009,32.8896405 C190.024541,33.7523405 187.061189,35.6692868 184.392258,37.6877352 C182.672239,32.9799545 178.374422,30.19741 173.599852,30.19741 C170.260403,30.19741 167.871039,31.2462308 165.014679,32.974967 C162.339076,34.6059754 160.335668,35.9570445 158.518381,37.2005119 L158.518381,30 L158.51885,30.0005392 Z M238.160897,30 C233.313972,31.729037 228.653314,32.8771669 224.280401,33.8444017 L224.280401,35.5691581 C230.559371,36.3409708 230.747973,36.4383111 230.747973,42.1915327 L230.747973,64.3630727 C230.747973,69.7356628 230.272227,70.2216901 224,70.7946765 L224,73 L245,73 L245,70.7946765 C238.634239,70.2216901 238.160897,69.7355617 238.160897,64.3630727 L238.160897,64.3428497 L238.160897,30.0007415 L238.160897,30 Z M427.735416,30 C422.78749,31.7290289 418.036185,32.8840629 413.572487,33.8379796 L413.572487,35.5693342 C419.975486,36.3377727 420.174834,36.438483 420.174834,42.1916775 L420.174834,64.3631133 C420.174834,69.7390486 419.692616,70.2183327 413,70.7946868 L413,73 L433.918621,73 L433.918621,70.7946868 C428.197155,70.2183327 427.708836,69.7389475 427.708836,64.3631133 L427.708836,40.0783788 C430.618947,37.5842482 434.502013,35.5689971 438.291334,35.5689971 C445.47128,35.5689971 447.316189,40.3692523 447.316189,45.9373057 L447.316189,64.3631133 C447.316189,69.7390486 446.830528,70.2183327 440.427598,70.7946868 L440.427598,73 L461,73 L461,70.7946868 C455.370541,70.2183327 454.89006,69.7389475 454.89006,64.3631133 L454.89006,42.9550941 C454.89006,35.3748568 450.517347,30.1971064 442.557387,30.1971064 C439.545047,30.1971064 437.124891,31.246071 434.211339,32.9751336 C431.689702,34.5154149 429.55579,35.8533656 427.708836,37.19499 L427.736098,37.1424104 L427.736098,30 L427.735416,30 Z M480.156396,30 C475.301001,31.729037 470.655172,32.8771669 466.280311,33.8444017 L466.280311,35.5691581 C472.550612,36.3409708 472.745829,36.4383111 472.745829,42.1915327 L472.745829,64.3630727 C472.745829,69.7356628 472.270234,70.2216901 466,70.7946765 L466,73 L487,73 L487,70.7946765 C480.632925,70.2216901 480.16307,69.7355617 480.16307,64.3630727 L480.156396,64.3428497 L480.156396,30.0007415 L480.156396,30 Z M546.731642,30 C541.787155,31.7290289 537.045964,32.8840629 532.578559,33.8379796 L532.578559,35.5693342 C538.977106,36.3377727 539.176316,36.438483 539.176316,42.1916775 L539.176316,64.3631133 C539.176316,69.7390486 538.687793,70.2183327 532,70.7946868 L532,73 L552.943919,73 L552.943919,70.7946868 C547.226431,70.2183327 546.731982,69.7389475 546.731982,64.3631133 L546.731982,40.0783788 C549.650251,37.5842482 553.530651,35.5689971 557.307122,35.5689971 C564.482076,35.5689971 566.325702,40.3692523 566.325702,45.9373057 L566.325702,64.3631133 C566.325702,69.7390486 565.840414,70.2183327 559.441901,70.7946868 L559.441901,73 L580,73 L580,70.7946868 C574.371049,70.2183327 573.894308,69.7389475 573.894308,64.3631133 L573.894308,42.9550941 C573.894308,35.3748568 569.524635,30.1971064 561.570209,30.1971064 C558.57018,30.1971064 556.14796,31.246071 553.243244,32.9751336 C550.723395,34.5154149 548.577651,35.8533656 546.731982,37.19499 L546.731982,37.1424104 L546.731982,30 L546.731642,30 Z M346.986586,30 C338.549675,30 332.548241,35.6728685 332.548241,42.5850766 C332.548241,48.9372913 337.868939,52.1953736 344.169406,54.9784735 C349.496908,57.2858826 351.724184,60.071715 351.724184,64.0115725 C351.724184,68.7175414 348.334111,71.1207904 344.847081,71.1207904 C339.138558,71.1207904 334.780621,64.9723323 333.225916,59.3993856 L333.225916,59.4651679 L331,59.9725017 C331,63.7170362 331.58446,68.9981791 332.162797,70.4420176 C334.003234,71.9769394 338.458842,74 343.405322,74 C350.763805,74 359,69.673882 359,60.8357687 C359,54.4059646 354.351874,50.6577193 347.279157,47.7767893 C343.016475,46.0495806 338.847348,43.3491303 338.847348,39.4089355 C338.847348,36.2379221 340.881494,32.8792771 345.239329,32.8792771 C348.91687,32.8792771 352.021518,35.0927355 354.933613,41.4380684 L357.259173,40.858239 C357.068662,39.2221473 356.092599,33.8404417 355.119633,31.6274556 C353.187342,30.7672247 350.470487,30 346.986859,30 L346.986586,30 Z M385.14448,30 C376.436704,30 364.003696,37.0141016 364,53.1500104 C364,63.136898 371.739424,74 385.236208,74 C394.902928,74 406,66.3148201 406,51.3311147 C406,39.3201954 397.293904,30 385.14448,30 L385.14448,30 Z M510.943476,30 C504.085863,31.2414004 498.386576,34.9009659 496.057704,36.6281785 C493.932557,38.1630701 492.768935,39.5179537 492.768935,40.7593203 C492.768935,42.4932462 495.384911,44.0273618 496.933068,44.0273618 C497.995624,44.0273618 498.86576,43.3593489 499.154323,42.2022513 C500.21688,38.1642171 502.249449,34.1309057 506.978452,34.1309057 C512.108082,34.1309057 514.9085,37.298924 514.9085,43.2564583 L514.9085,46.5244998 C512.009359,48.538423 504.092483,51.3323581 499.353262,53.2518581 C494.325478,55.2657813 492,58.527953 492,62.9505619 C492,68.2367772 496.538925,74 503.603624,74 C505.633715,74 510.855379,70.3512633 514.908839,67.7536974 C515.485965,70.1589422 516.936995,73.4265114 520.226544,74 L520.286294,73.947374 L530,69.28896 L529.124772,67.1739679 C527.386639,68.040914 525.744817,68.425826 524.967429,68.425826 C523.517859,68.425826 522.262169,66.7994124 522.262169,63.2404773 L522.262169,41.6294037 C522.262169,38.164858 521.776534,34.8025283 518.588933,32.3061662 C516.653898,30.8691051 513.659599,30 510.943713,30 L510.943476,30 Z M385.023216,34 C393.520271,34 398,43.839633 398,54.4373213 C397.998183,67.3061585 393.051966,72 387.265048,72 C379.13857,72 374,62.7430739 374,50.6195518 C374,40.5914946 378.759794,34 385.023216,34 Z M515,50 L515,64.4768525 C512.348249,66.3759033 508.726553,68 506.470784,68 C503.522822,68 500,65.7460939 500,60.9476711 C500,57.689379 501.661658,55.8833451 505.098726,54.162103 C506.951521,53.2570219 512.844105,50.8193366 515,50 L515,50 Z" id="Shape" fill="#FFFFFF"></path>
            <path d="M55.3015293,76.9463504 C75.7065842,68.4913401 85.3992507,45.0982597 76.9440588,24.6962986 C68.494178,4.28902649 45.1016574,-5.39599664 24.6960715,3.05423384 C4.29048559,11.5076509 -5.39793216,34.8996691 3.05566642,55.3042857 C11.5060784,75.7089023 34.8985989,85.3960498 55.3025915,76.9463504" id="Path" fill="#ADADAD"></path>
            <path d="M67.5119044,49.2391399 C64.5560994,44.1621362 59.888487,44.1034001 59.3157866,44.1191329 L59.3157866,44.1002535 L79,39.9986889 L59.3157866,35.9007954 L59.3157866,35.8945022 C59.5213714,35.709903 63.3461913,32.3325758 69.0821102,32.2460449 C73.4177453,32.1841622 77.1649465,26.8821781 74.7724018,22.8089328 C74.7724018,22.8089328 74.0643931,29.2101215 65.9815568,27.0762171 C60.3007053,25.5737261 56.9568068,28.837252 56.5624197,29.2531247 C56.5624197,29.2505026 56.5624197,29.2468316 56.5561263,29.243685 L67.580083,12.4231273 L50.7588467,23.4429683 C50.7562245,23.4398217 50.7530778,23.4398217 50.7499311,23.4398217 C50.761469,23.1901932 51.0698461,18.0791015 55.081895,13.9502666 C58.0995851,10.8403986 56.9998117,4.44497859 52.430796,3.25662092 C52.430796,3.25662092 56.4522851,8.28170614 49.2284992,12.4876322 C44.1544373,15.4438423 44.0988455,20.1112665 44.1109079,20.6844681 L44.0988455,20.6844681 L39.99764,1 L35.8964344,20.6813216 C35.8964344,20.6844681 35.8938122,20.6844681 35.890141,20.6844681 C35.7270368,20.5056376 32.3275464,16.6720566 32.2383898,10.9143432 C32.1770291,6.58255397 26.8743066,2.83183288 22.8040437,5.22742767 C22.8040437,5.22742767 29.2023439,5.93593217 27.0683534,14.0147714 C25.5652773,19.7111266 28.8472907,23.0548903 29.2479711,23.4366751 C29.2479711,23.4366751 29.2479711,23.4398217 29.2416777,23.4398217 L12.4235882,12.4205052 L21.4021866,26.1280482 L23.440727,29.2410628 C23.440727,29.2410628 23.440727,29.243685 23.4375803,29.2468316 C23.2744761,29.2373918 18.1075864,28.9573464 13.9450201,24.9150424 C10.8345021,21.9006206 4.4362019,22.9998252 3.2477963,27.569181 C3.2477963,27.569181 8.27623095,23.5478542 12.4818022,30.7682021 C15.4470473,35.8609387 20.1303933,35.9007954 20.6878845,35.8887335 C20.6878845,35.8918801 20.6815911,35.8981732 20.6815911,35.9007954 L1,39.9986889 L20.6821156,44.1002535 L20.6821156,44.1034001 C20.5525762,44.2234944 16.7067782,47.672144 10.9089742,47.7581505 C6.57648578,47.8231798 2.82928453,53.1225417 5.21868255,57.1952627 C5.21868255,57.1952627 5.9329846,50.7940739 14.0126742,52.9274539 C19.7181749,54.4367625 23.0594512,51.1391487 23.434958,50.7479241 C23.4381047,50.7510707 23.4412514,50.7573639 23.4475448,50.759986 L12.4241126,67.5789704 L29.2422022,56.5607027 C29.2359087,56.7363867 28.9527053,61.8936282 24.9128605,66.056551 C21.8951703,69.162748 22.9944193,75.5607901 27.5608128,76.7496722 C27.5608128,76.7496722 23.5424704,71.7251114 30.7631096,67.5181365 C35.8560517,64.55406 35.8990567,59.869854 35.8838476,59.3129097 C35.890141,59.3155319 35.8964344,59.3155319 35.8990567,59.3186784 L40.0002622,79 L44.1014678,59.3186784 L44.1014678,59.3155319 C44.2493629,59.4791539 47.667209,63.3185036 47.7537434,69.09195 C47.8182509,73.4242636 53.1173022,77.1713137 57.1907118,74.7793899 C57.1907118,74.7793899 50.7897893,74.0708854 52.9258776,65.9883751 C54.4284293,60.2977887 51.1495626,56.9545494 50.7462599,56.5664715 C50.7530778,56.5633249 50.7562245,56.5601783 50.761469,56.5570317 L67.580083,67.5768727 L61.7633987,58.6967048 L56.559273,50.7557906 C56.7900314,50.7678525 61.9139161,51.069924 66.049211,55.0886286 C69.1592044,58.102526 75.5580291,57.006468 76.7464347,52.4371121 C76.7359457,52.4476007 71.7117067,56.4647321 67.505611,49.2480552" id="Path" fill="#FFFFFF"></path>
        </g>
    </g>
</svg>

<svg width="580" height="80" xmlns="http://www.w3.org/2000/svg"><g fill-rule="nonzero" fill="none"><path d="M291.452 5c-3.688.955-9.893 2.496-14.452 3.357v1.911c6.691.575 6.884.477 6.884 6.326v47.788c0 5.364-.492 5.842-6.598 6.417V73h20.558v-2.2c-5.915-.576-6.398-1.054-6.398-6.418V39.959c2.42-2.781 6.012-4.212 9.99-4.408 7.076 0 9.597 4.506 9.597 11.397v17.434c0 5.364-.479 5.842-6.598 6.417V73H325v-2.292c-5.908-.485-6.405-.962-6.405-6.326V44.078c0-8.53-5.039-13.99-13.382-13.795-5.234.189-10.467 3.256-13.76 6.7V5zM234 9c-2.695 0-5 2.203-5 5.05 0 2.754 2.305 4.95 5 4.95 2.789 0 4.993-2.19 5-4.937 0-2.837-2.21-5.03-5-5.063zm242.007 0C473.322 9 471 11.203 471 14.05c0 2.754 2.318 4.95 5.007 4.95 2.782 0 4.986-2.19 4.993-4.937 0-2.837-2.19-5.03-4.993-5.063zm-354.125 1c-12.41 0-19.51 7.993-19.51 17.314 0 11.29 12.788 15.726 15.916 17.23 6.066 2.918 12.225 6.206 12.225 14.208 0 7.338-4.55 12.15-11.757 12.15-10.039 0-14.873-10.455-16.384-14.874l-2.372.368c.948 5.083 1.987 11.763 2.743 14.208 1.134.48 2.846 1.225 5.212 1.982 2.372.757 5.587 1.414 9.001 1.414C128.995 74 138 65.999 138 55.079c0-11.664-9.953-15.53-16.209-18.25-7.2-3.206-12.224-6.321-12.224-13.285 0-5.556 3.51-10.439 10.236-10.439 8.625 0 11.28 6.587 12.887 12.137l2.366-.284c-.752-5.646-1.323-9.41-1.703-12.705-1.041-.185-2.366-.66-3.6-1.033-1.993-.66-5.212-1.22-7.87-1.22zm138.921 9l-6.314 6.312v6.028h-4.668L247 34.017l.393.95h7.095v27.454c0 7.655 3.402 11.579 9.63 11.579.675 0 1.94-.29 2.913-.768L275 69.31l-.98-2.105c-1.847 1.051-3.984 1.817-5.735 1.817-2.622 0-6.222-1.338-6.222-8.797l.007-.034V34.967h10.596c1.171-1.048 1.459-2.576.68-3.628H262.07V19h-1.267zM158.52 30c-4.869 1.73-9.55 2.89-13.942 3.851v1.724c6.303.769 6.49.863 6.49 6.615h-.007v22.175c0 5.375-.471 5.847-7.06 6.423V73h20.726v-2.212c-5.736-.576-6.214-1.049-6.214-6.423v-24.28c3.064-2.495 6.881-4.51 10.7-4.51 6.582 0 8.586 4.418 8.586 9.978v18.811c0 5.375-.47 5.848-6.68 6.424V73h20.235v-2.212c-5.633-.576-6.11-1.049-6.11-6.424V42.861c0-.862-.096-1.624-.19-2.679 3.534-3.073 7.257-4.607 10.603-4.607 7.064 0 8.873 4.796 8.873 10.36v18.43c0 5.374-.47 5.847-6.778 6.423V73H218v-2.212c-5.539-.576-6.018-1.049-6.018-6.424V42.96c0-7.58-4.289-12.762-12.023-12.762-3.149 0-5.546 1.057-8.409 2.692-1.525.862-4.489 2.78-7.158 4.798-1.72-4.708-6.018-7.49-10.792-7.49-3.34 0-5.729 1.048-8.585 2.777a138.75 138.75 0 00-6.497 4.226V30zm79.642 0c-4.847 1.729-9.508 2.877-13.88 3.844v1.725c6.278.772 6.467.87 6.467 6.623v22.171c0 5.373-.476 5.859-6.748 6.432V73h21v-2.205c-6.366-.573-6.84-1.06-6.84-6.432V30zm189.574 0c-4.948 1.729-9.699 2.884-14.163 3.838v1.731c6.403.769 6.603.87 6.603 6.623v22.171c0 5.376-.482 5.855-7.175 6.432V73h20.919v-2.205c-5.722-.577-6.21-1.056-6.21-6.432V40.078c2.91-2.494 6.793-4.509 10.582-4.509 7.18 0 9.025 4.8 9.025 10.368v18.426c0 5.376-.485 5.855-6.888 6.432V73H461v-2.205c-5.63-.577-6.11-1.056-6.11-6.432V42.955c0-7.58-4.373-12.758-12.333-12.758-3.012 0-5.432 1.05-8.346 2.778-2.521 1.54-4.655 2.878-6.502 4.22l.027-.053V30zm52.421 0c-4.855 1.729-9.5 2.877-13.876 3.844v1.725c6.27.772 6.466.87 6.466 6.623v22.171c0 5.373-.476 5.859-6.746 6.432V73h21v-2.205c-6.367-.573-6.837-1.06-6.837-6.432l-.007-.02V30zm66.576 0c-4.945 1.729-9.686 2.884-14.153 3.838v1.731c6.398.769 6.597.87 6.597 6.623v22.171c0 5.376-.488 5.855-7.176 6.432V73h20.944v-2.205c-5.718-.577-6.212-1.056-6.212-6.432V40.078c2.918-2.494 6.799-4.509 10.575-4.509 7.175 0 9.019 4.8 9.019 10.368v18.426c0 5.376-.486 5.855-6.884 6.432V73H580v-2.205c-5.629-.577-6.106-1.056-6.106-6.432V42.955c0-7.58-4.37-12.758-12.324-12.758-3 0-5.422 1.05-8.327 2.778-2.52 1.54-4.665 2.878-6.511 4.22V30zm-199.745 0c-8.437 0-14.439 5.673-14.439 12.585 0 6.352 5.32 9.61 11.621 12.393 5.328 2.308 7.555 5.094 7.555 9.034 0 4.706-3.39 7.109-6.877 7.109-5.708 0-10.066-6.149-11.621-11.722v.066l-2.226.508c0 3.744.584 9.025 1.163 10.469 1.84 1.535 6.296 3.558 11.242 3.558C350.764 74 359 69.674 359 60.836c0-6.43-4.648-10.178-11.72-13.06-4.264-1.726-8.433-4.427-8.433-8.367 0-3.171 2.034-6.53 6.392-6.53 3.678 0 6.783 2.214 9.695 8.56l2.325-.58c-.19-1.637-1.166-7.019-2.14-9.232-1.932-.86-4.649-1.627-8.132-1.627zm38.157 0c-8.707 0-21.14 7.014-21.144 23.15 0 9.987 7.74 20.85 21.236 20.85C394.903 74 406 66.315 406 51.331 406 39.321 397.294 30 385.144 30zm125.8 0c-6.858 1.241-12.557 4.901-14.886 6.628-2.125 1.535-3.29 2.89-3.29 4.131 0 1.734 2.617 3.268 4.165 3.268 1.063 0 1.933-.668 2.221-1.825 1.063-4.038 3.095-8.071 7.824-8.071 5.13 0 7.93 3.168 7.93 9.125v3.268c-2.899 2.014-10.816 4.808-15.555 6.728-5.028 2.014-7.353 5.276-7.353 9.699C492 68.237 496.539 74 503.604 74c2.03 0 7.251-3.649 11.305-6.246.577 2.405 2.028 5.673 5.318 6.246l.06-.053L530 69.29l-.875-2.115c-1.738.867-3.38 1.252-4.158 1.252-1.45 0-2.705-1.627-2.705-5.186V41.63c0-3.465-.485-6.827-3.673-9.324-1.935-1.437-4.93-2.306-7.645-2.306zm-125.92 4C393.52 34 398 43.84 398 54.437 397.998 67.307 393.052 72 387.265 72 379.139 72 374 62.743 374 50.62 374 40.59 378.76 34 385.023 34zM515 50v14.477c-2.652 1.899-6.273 3.523-8.53 3.523-2.947 0-6.47-2.254-6.47-7.052 0-3.259 1.662-5.065 5.099-6.786 1.853-.905 7.745-3.343 9.901-4.162z" fill="#FFF"/><path d="M55.302 76.946c20.405-8.455 30.097-31.848 21.642-52.25C68.494 4.29 45.102-5.396 24.696 3.054 4.29 11.508-5.398 34.9 3.056 55.304c8.45 20.405 31.843 30.092 52.247 21.642" fill="#ADADAD"/><path d="M67.512 49.24c-2.956-5.078-7.624-5.137-8.196-5.12v-.02L79 40 59.316 35.9v-.006c.205-.185 4.03-3.562 9.766-3.649 4.336-.062 8.083-5.364 5.69-9.437 0 0-.708 6.401-8.79 4.267-5.681-1.502-9.025 1.761-9.42 2.177 0-.002 0-.006-.006-.01l11.024-16.82-16.821 11.02c-.003-.003-.006-.003-.01-.003.012-.25.32-5.36 4.333-9.49C58.1 10.84 57 4.445 52.43 3.257c0 0 4.021 5.025-3.203 9.23-5.074 2.957-5.13 7.624-5.117 8.197h-.012L39.998 1l-4.102 19.681c0 .003-.002.003-.006.003-.163-.178-3.562-4.012-3.652-9.77-.061-4.331-5.364-8.082-9.434-5.687 0 0 6.398.709 4.264 8.788-1.503 5.696 1.78 9.04 2.18 9.422 0 0 0 .003-.006.003L12.424 12.42l8.978 13.708 2.039 3.113s0 .003-.003.006c-.164-.01-5.33-.29-9.493-4.332-3.11-3.014-9.509-1.915-10.697 2.654 0 0 5.028-4.021 9.234 3.2 2.965 5.092 7.648 5.132 8.206 5.12 0 .003-.006.01-.006.012L1 39.999 20.682 44.1v.003c-.13.12-3.975 3.57-9.773 3.655-4.333.065-8.08 5.365-5.69 9.437 0 0 .714-6.4 8.794-4.268 5.705 1.51 9.046-1.788 9.422-2.18.003.004.006.01.013.013L12.424 67.579l16.818-11.018c-.006.175-.29 5.333-4.33 9.496-3.017 3.106-1.918 9.504 2.649 10.693 0 0-4.019-5.025 3.202-9.232 5.093-2.964 5.136-7.648 5.12-8.205.007.003.013.003.016.006L40 79l4.101-19.681v-.003c.148.163 3.566 4.003 3.653 9.776.064 4.332 5.363 8.08 9.437 5.687 0 0-6.401-.708-4.265-8.79 1.502-5.691-1.776-9.034-2.18-9.423.007-.003.01-.006.015-.009l16.82 11.02-5.818-8.88-5.204-7.941c.231.012 5.355.314 9.49 4.333 3.11 3.014 9.509 1.917 10.697-2.652-.01.01-5.034 4.028-9.24-3.189" fill="#FFF"/></g></svg>
